Numix/48/actions/go-jump.svg

<?xml version="1.0" encoding="UTF-8" standalone="no"?>
<svg
   xmlns:dc="http://purl.org/dc/elements/1.1/"
   xmlns:cc="http://creativecommons.org/ns#"
   xmlns:rdf="http://www.w3.org/1999/02/22-rdf-syntax-ns#"
   xmlns:svg="http://www.w3.org/2000/svg"
   xmlns="http://www.w3.org/2000/svg"
   xmlns:sodipodi="http://sodipodi.sourceforge.net/DTD/sodipodi-0.dtd"
   xmlns:inkscape="http://www.inkscape.org/namespaces/inkscape"
   width="48"
   height="48"
   viewBox="0 0 48 48"
   id="svg2"
   version="1.1"
   inkscape:version="0.91 r13725"
   sodipodi:docname="go-jump.svg">
  <metadata
     id="metadata16">
    <rdf:RDF>
      <cc:Work
         rdf:about="">
        <dc:format>image/svg+xml</dc:format>
        <dc:type
           rdf:resource="http://purl.org/dc/dcmitype/StillImage" />
      </cc:Work>
    </rdf:RDF>
  </metadata>
  <defs
     id="defs14" />
  <sodipodi:namedview
     pagecolor="#ffffff"
     bordercolor="#666666"
     borderopacity="1"
     objecttolerance="10"
     gridtolerance="10"
     guidetolerance="10"
     inkscape:pageopacity="0"
     inkscape:pageshadow="2"
     inkscape:window-width="1366"
     inkscape:window-height="704"
     id="namedview12"
     showgrid="true"
     inkscape:zoom="14.63978"
     inkscape:cx="22.927458"
     inkscape:cy="24"
     inkscape:window-x="0"
     inkscape:window-y="27"
     inkscape:window-maximized="1"
     inkscape:current-layer="svg2">
    <inkscape:grid
       type="xygrid"
       id="grid4147" />
  </sodipodi:namedview>
  <g
     style="fill-rule:evenodd"
     id="g4">
    <path
       style="fill:#268bd2"
       d="M 8.0292969,12 C 5.5111912,15.345422 4,19.491779 4,24 4,35.042969 12.957031,44 24,44 35.042969,44 44,35.042969 44,24 44,19.491779 42.488809,15.345422 39.970703,12 30,10 18,10 8.0292969,12 Z"
       id="path6"
       inkscape:connector-curvature="0"
       sodipodi:nodetypes="cssscc" />
    <path
       style="fill:#eaf4fb;fill-opacity:1"
       d="M 24 4 C 17.933594 4 12 6 8 12 L 22.007812 12 L 22.007812 28.625 L 17.945312 24.6875 C 17.285156 24.019531 16.257812 23.824219 15.382812 24.1875 C 14.503906 24.550781 13.976562 25.382812 14.007812 26.3125 C 14.023439 26.898438 14.269532 27.472656 14.695312 27.875 L 22.382812 35.3125 C 22.8125 35.738281 23.394531 36 24.007812 36 C 24.617188 36 25.199219 35.738281 25.632812 35.3125 L 33.320312 27.875 C 34.21875 27 34.21875 25.5625 33.320312 24.6875 C 32.417969 23.8125 30.96875 23.8125 30.070312 24.6875 L 26.007812 28.625 L 26.007812 12 L 40 12 C 36 6 30.078125 4 24 4 z "
       id="path8" />
  </g>
</svg>

<svg xmlns="http://www.w3.org/2000/svg" viewBox="0 0 48 48">
 <g style="fill-rule:evenodd">
  <path d="m 8.03 12 c -2.518 3.345 -4.03 7.492 -4.03 12 0 11.04 8.957 20 20 20 11.04 0 20 -8.957 20 -20 0 -4.508 -1.511 -8.655 -4.03 -12 -9.971 -2 -21.971 -2 -31.941 0" style="fill:#268bd2"/>
  <path d="m 24 4 c -6.066 0 -12 2 -16 8 l 14.01 0 l 0 16.625 l -4.063 -3.938 c -0.66 -0.668 -1.688 -0.863 -2.563 -0.5 c -0.879 0.363 -1.406 1.195 -1.375 2.125 c 0.016 0.586 0.262 1.16 0.688 1.563 l 7.688 7.438 c 0.43 0.426 1.012 0.688 1.625 0.688 c 0.609 0 1.191 -0.262 1.625 -0.688 l 7.688 -7.438 c 0.898 -0.875 0.898 -2.313 0 -3.188 c -0.902 -0.875 -2.352 -0.875 -3.25 0 l -4.063 3.938 l 0 -16.625 l 13.992 0 c -4 -6 -9.922 -8 -16 -8 z" style="fill:#eaf4fb;fill-opacity:1"/>
 </g>
</svg>
